site/static/icons/fork.svg

<svg height="24" viewBox="0 0 24 24" width="24" xmlns="http://www.w3.org/2000/svg"><path d="m3 4v8.5l3-3 3 3.5c1 1 1 2 1 2v6h4v-7s0-1-.53-2-1.47-2-1.47-2l-3-3.42 2.5-2.58m6.5 0-4.46 4.47.46.53s.93 1 1.47 2c.21.4.33.79.4 1.13l5.13-5.13" fill="#aa1e1e"/></svg>

<?xml version="1.0" encoding="utf-8"?>
<svg xmlns="http://www.w3.org/2000/svg" style="width:24px;height:24px" viewBox="0 0 24 24">
    <path fill="#aa1e1e" d="M3,4V12.5L6,9.5L9,13C10,14 10,15 10,15V21H14V14C14,14 14,13 13.47,12C12.94,11 12,10 12,10L9,6.58L11.5,4M18,4L13.54,8.47L14,9C14,9 14.93,10 15.47,11C15.68,11.4 15.8,11.79 15.87,12.13L21,7" />
</svg>
